web-magafilio/image/sobre/icon-missao.svg

<svg width="36" height="37" viewBox="0 0 36 37" fill="none" xmlns="http://www.w3.org/2000/svg">
<path d="M24.4205 7.61747C20.6237 7.61747 17.5299 5.15653 12.819 5.15653C11.0612 5.15653 9.51428 5.5081 8.03772 6.0706C8.17834 5.64872 8.31897 5.01591 8.31897 4.66435C8.31897 4.59403 8.24866 4.45341 8.24866 4.3831C8.17834 2.41435 6.49084 0.79716 4.52209 0.726847C2.27209 0.586222 0.44397 2.41435 0.44397 4.59403C0.44397 6.00028 1.07678 7.12528 2.13147 7.82841V34.969C2.13147 35.9534 2.83459 36.6565 3.81897 36.6565H4.94397C5.85803 36.6565 6.63147 35.9534 6.63147 34.969V28.3597C8.60022 27.5159 11.0612 26.8128 14.6471 26.8128C18.444 26.8128 21.5377 29.2737 26.2487 29.2737C29.6237 29.2737 32.3658 28.0784 34.8971 26.3909C35.4596 25.969 35.8815 25.2659 35.8815 24.5628V7.40653C35.8815 5.78935 34.1237 4.73466 32.6471 5.36747C30.2565 6.49247 27.3033 7.61747 24.4205 7.61747Z" fill="#FDAA08"/>
</svg>

<svg width="36" height="37" fill="none" xmlns="http://www.w3.org/2000/svg"><path d="M24.42 7.617c-3.796 0-6.89-2.46-11.601-2.46-1.758 0-3.305.351-4.781.914.14-.422.281-1.055.281-1.407 0-.07-.07-.21-.07-.28C8.179 2.413 6.49.796 4.522.726 2.272.587.444 2.414.444 4.594c0 1.406.633 2.531 1.687 3.234V34.97c0 .984.704 1.688 1.688 1.688h1.125c.914 0 1.687-.704 1.687-1.688v-6.61c1.97-.843 4.43-1.546 8.016-1.546 3.797 0 6.89 2.46 11.602 2.46 3.375 0 6.117-1.195 8.648-2.882.563-.422.985-1.125.985-1.828V7.407c0-1.618-1.758-2.672-3.235-2.04-2.39 1.125-5.344 2.25-8.226 2.25z" fill="#FDAA08"/></svg>
